X:59
T:Exonian Finale,The. JNu.60
M:2/4
Q:1/4=60
C:”Hart’s 8th Set”
S:James Nuttall MS,c1830?,Rossendale,East Lancs.
R:.Quadrille
O:England
A:East Lancashire
Z:vmp.Chris Partington
K:C
c>ccc|ccce|dcBA|GA/G/ GF|EG Dg/f/|ea d/e/f|”bar missing?”e>dc2||!
e>eee|e/e/e/e/ eg|fedc|d>B Gd/d/|!
ed/d/ ed/d/|ef/e/ dg|ea d/e/f|e>dc2||!
A>AAA|AAAc|BA^GF|E>FE e/d/|!
c/d/e/c/ B/^d/e/=d/|\
c/d/e/c/ B/^d/e/=d/|c/d/e/c/ B/c/d/B/|A>BA2||!
g/g/g/g/ gg|g/g/g/g/ gg|ed/e/ fe|d>e dd/d/|eded|!
f/e/ dg/f/|ea d/e/f|e>dc2|]

